48x48/mimetypes/application-x-macbinary.svg

<svg xmlns="http://www.w3.org/2000/svg" width="48" height="48" version="1.1">
 <path style="opacity:0.2" d="M 10,5 C 8.892,5 8,5.892 8,7 V 43 C 8,44.108 8.892,45 10,45 H 38 C 39.108,45 40,44.108 40,43 V 17 L 28,5 Z"/>
 <path style="fill:#f4f4f7" d="M 10,4 C 8.892,4 8,4.892 8,6 V 42 C 8,43.108 8.892,44 10,44 H 38 C 39.108,44 40,43.108 40,42 V 16 L 30,14 28,4 Z"/>
 <path style="opacity:0.2" d="M 40,17 28,5 V 15 C 28,16.108 28.892,17 30,17 Z"/>
 <path style="fill:#fafafa" d="M 40,16 28,4 V 14 C 28,15.108 28.892,16 30,16 Z"/>
 <path style="opacity:0.2;fill:#f4f4f7" d="M 10 4 C 8.892 4 8 4.892 8 6 L 8 7 C 8 5.892 8.892 5 10 5 L 28 5 L 28 4 L 10 4 z"/>
 <path style="opacity:0.1" d="m 26.03155,28.304772 c 0.07311,0.08225 0.267172,0.264829 0.582213,0.547749 4.422179,4.385867 6.548166,6.341833 6.377112,6.867399 -0.122941,0.3866 -0.477309,0.714419 -1.063107,0.983461 -0.584831,0.25339 -1.111711,0.368291 -1.580643,0.3447 -0.371275,-0.01867 -2.13453,-1.367225 -5.288913,-5.045168 -0.63649,-0.770424 -1.01032,-1.20557 -1.121491,-1.305439 -0.462169,0.47952 -1.153011,1.465994 -2.072529,2.959423 -1.183626,2.382836 -2.741034,4.581652 -3.633017,7.099367 -0.272445,0.881828 -0.965547,1.294734 -2.079303,1.238717 -0.586195,-0.02948 -0.946355,-0.220419 -1.080473,-0.572808 -0.134128,-0.352392 -0.07928,-0.899518 0.164543,-1.641391 0.468095,-1.484717 2.719266,-5.087163 6.753519,-10.807346 -0.02295,-0.252519 -0.600991,-1.169267 -1.73413,-2.75025 -1.133158,-1.580953 -2.032782,-2.778515 -2.698879,-3.393346 -0.721703,-0.664723 -1.022101,-1.174731 -0.901192,-1.530024 0.272431,-0.881809 1.131619,-1.286362 2.577564,-1.213657 0.703423,0.0354 1.957152,1.517861 3.761194,4.248041 0.770587,1.12284 1.275329,1.808091 1.514227,2.055757 0.415999,-0.371838 1.009013,-1.056865 1.779037,-2.055086 0.771005,-1.013846 1.304201,-1.835427 1.599595,-2.464744 0.292336,-0.582298 0.75348,-1.046147 1.383441,-1.39155 0.629925,-0.345361 1.22822,-0.503802 1.794892,-0.475323 0.879264,0.04424 1.197504,0.429462 0.954714,1.15565 -0.272459,0.881849 -1.857797,2.820986 -4.756019,5.817418 -0.755905,0.778973 -1.166687,1.221788 -1.232356,1.32845"/>
 <path style="fill:#4f4f4f" d="m 26.03155,27.304772 c 0.07311,0.08225 0.267172,0.264829 0.582213,0.547749 4.422179,4.385867 6.548166,6.341833 6.377112,6.867399 -0.122941,0.3866 -0.477309,0.714419 -1.063107,0.983461 -0.584831,0.25339 -1.111711,0.368291 -1.580643,0.3447 -0.371275,-0.01867 -2.13453,-1.367225 -5.288913,-5.045168 -0.63649,-0.770424 -1.01032,-1.20557 -1.121491,-1.305439 -0.462169,0.47952 -1.153011,1.465994 -2.072529,2.959423 -1.183626,2.382836 -2.741034,4.581652 -3.633017,7.099367 -0.272445,0.881828 -0.965547,1.294734 -2.079303,1.238717 -0.586195,-0.02948 -0.946355,-0.220419 -1.080473,-0.572808 -0.134128,-0.352392 -0.07928,-0.899518 0.164543,-1.641391 0.468095,-1.484717 2.719266,-5.087163 6.753519,-10.807346 -0.02295,-0.252519 -0.600991,-1.169267 -1.73413,-2.75025 -1.133158,-1.580953 -2.032782,-2.778515 -2.698879,-3.393346 -0.721703,-0.664723 -1.022101,-1.174731 -0.901192,-1.530024 0.272431,-0.881809 1.131619,-1.286362 2.577564,-1.213657 0.703423,0.0354 1.957152,1.517861 3.761194,4.248041 0.770587,1.12284 1.275329,1.808091 1.514227,2.055757 0.415999,-0.371838 1.009013,-1.056865 1.779037,-2.055086 0.771005,-1.013846 1.304201,-1.835427 1.599595,-2.464744 0.292336,-0.582298 0.75348,-1.046147 1.383441,-1.39155 0.629925,-0.345361 1.22822,-0.503802 1.794892,-0.475323 0.879264,0.04424 1.197504,0.429462 0.954714,1.15565 -0.272459,0.881849 -1.857797,2.820986 -4.756019,5.817418 -0.755905,0.778973 -1.166687,1.221788 -1.232356,1.32845"/>
</svg>

<svg xmlns="http://www.w3.org/2000/svg" width="48" height="48"><path style="opacity:.2" d="M10 5c-1.108 0-2 .892-2 2v36c0 1.108.892 2 2 2h28c1.108 0 2-.892 2-2V17L28 5z"/><path style="fill:#f4f4f7" d="M10 4c-1.108 0-2 .892-2 2v36c0 1.108.892 2 2 2h28c1.108 0 2-.892 2-2V16l-10-2-2-10z"/><path style="opacity:.2" d="M40 17 28 5v10c0 1.108.892 2 2 2z"/><path style="fill:#fafafa" d="M40 16 28 4v10c0 1.108.892 2 2 2z"/><path style="opacity:.2;fill:#f4f4f7" d="M10 4c-1.108 0-2 .892-2 2v1c0-1.108.892-2 2-2h18V4H10z"/><path style="opacity:.1" d="M26.032 28.305c.073.082.267.265.582.548 4.422 4.385 6.548 6.341 6.377 6.867-.123.387-.477.714-1.063.983-.585.254-1.112.369-1.58.345-.372-.019-2.135-1.367-5.29-5.045-.636-.77-1.01-1.206-1.121-1.306-.462.48-1.153 1.466-2.073 2.96-1.183 2.383-2.74 4.582-3.633 7.1-.272.881-.965 1.294-2.08 1.238-.585-.03-.945-.22-1.08-.573-.134-.352-.079-.9.165-1.641.468-1.485 2.72-5.087 6.753-10.808-.022-.252-.6-1.169-1.734-2.75-1.133-1.58-2.032-2.778-2.699-3.393-.721-.665-1.022-1.175-.9-1.53.272-.882 1.13-1.287 2.577-1.214.703.036 1.957 1.518 3.761 4.248.77 1.123 1.275 1.808 1.514 2.056.416-.372 1.01-1.057 1.78-2.055.77-1.014 1.303-1.836 1.599-2.465.292-.582.753-1.046 1.383-1.391.63-.346 1.229-.504 1.795-.476.88.044 1.198.43.955 1.156-.273.882-1.858 2.82-4.756 5.817-.756.78-1.167 1.222-1.232 1.329"/><path style="fill:#4f4f4f" d="M26.032 27.305c.073.082.267.265.582.548 4.422 4.385 6.548 6.341 6.377 6.867-.123.387-.477.714-1.063.983-.585.254-1.112.369-1.58.345-.372-.019-2.135-1.367-5.29-5.045-.636-.77-1.01-1.206-1.121-1.306-.462.48-1.153 1.466-2.073 2.96-1.183 2.383-2.74 4.582-3.633 7.1-.272.881-.965 1.294-2.08 1.238-.585-.03-.945-.22-1.08-.573-.134-.352-.079-.9.165-1.641.468-1.485 2.72-5.087 6.753-10.808-.022-.252-.6-1.169-1.734-2.75-1.133-1.58-2.032-2.778-2.699-3.393-.721-.665-1.022-1.175-.9-1.53.272-.882 1.13-1.287 2.577-1.214.703.036 1.957 1.518 3.761 4.248.77 1.123 1.275 1.808 1.514 2.056.416-.372 1.01-1.057 1.78-2.055.77-1.014 1.303-1.836 1.599-2.465.292-.582.753-1.046 1.383-1.391.63-.346 1.229-.504 1.795-.476.88.044 1.198.43.955 1.156-.273.882-1.858 2.82-4.756 5.817-.756.78-1.167 1.222-1.232 1.329"/></svg>
